symbols/web/unpublished/materialsymbolsoutlined/unpublished_wght200grad200_40px.svg

<svg xmlns="http://www.w3.org/2000/svg" height="40" width="40"><path d="m35.5 38.083-5.625-5.666q-2.083 1.666-4.563 2.562-2.479.896-5.312.896-3.292 0-6.208-1.229-2.917-1.229-5.063-3.375t-3.375-5.063Q4.125 23.292 4.125 20q0-2.833.896-5.312.896-2.48 2.562-4.563L2.5 5.083l1.542-1.541 33 33ZM20 33.75q2.417 0 4.5-.75t3.833-2.083L21 23.583l-3.458 3.459-6.375-6.417 1.25-1.292 4.916 4.875 2.167-2.166L9.083 11.667Q7.75 13.417 7 15.5q-.75 2.083-.75 4.5 0 5.75 4 9.75t9.75 4Zm13.375-5.167-1.5-1.541q.875-1.542 1.375-3.313.5-1.771.5-3.729 0-5.75-4-9.75t-9.75-4q-1.917 0-3.708.5-1.792.5-3.334 1.375l-1.541-1.5q1.833-1.208 4-1.854 2.166-.646 4.583-.646 3.333 0 6.229 1.208 2.896 1.209 5.063 3.375 2.166 2.167 3.375 5.063 1.208 2.896 1.208 6.229 0 2.417-.646 4.583-.646 2.167-1.854 4Zm-8.667-8.666-1.583-1.542 4.167-4.167 1.541 1.542Zm-2.333-2.292Zm-3.667 3.667Z"/></svg>

<svg xmlns="http://www.w3.org/2000/svg" height="40" width="40"><path d="M35.5 38.083 29.875 32.417Q27.792 34.083 25.312 34.979Q22.833 35.875 20 35.875Q16.708 35.875 13.792 34.646Q10.875 33.417 8.729 31.271Q6.583 29.125 5.354 26.208Q4.125 23.292 4.125 20Q4.125 17.167 5.021 14.688Q5.917 12.208 7.583 10.125L2.5 5.083L4.042 3.542L37.042 36.542ZM20 33.75Q22.417 33.75 24.5 33Q26.583 32.25 28.333 30.917L21 23.583L17.542 27.042L11.167 20.625L12.417 19.333L17.333 24.208L19.5 22.042L9.083 11.667Q7.75 13.417 7 15.5Q6.25 17.583 6.25 20Q6.25 25.75 10.25 29.75Q14.25 33.75 20 33.75ZM33.375 28.583 31.875 27.042Q32.75 25.5 33.25 23.729Q33.75 21.958 33.75 20Q33.75 14.25 29.75 10.25Q25.75 6.25 20 6.25Q18.083 6.25 16.292 6.75Q14.5 7.25 12.958 8.125L11.417 6.625Q13.25 5.417 15.417 4.771Q17.583 4.125 20 4.125Q23.333 4.125 26.229 5.333Q29.125 6.542 31.292 8.708Q33.458 10.875 34.667 13.771Q35.875 16.667 35.875 20Q35.875 22.417 35.229 24.583Q34.583 26.75 33.375 28.583ZM24.708 19.917 23.125 18.375 27.292 14.208 28.833 15.75ZM22.375 17.625Q22.375 17.625 22.375 17.625Q22.375 17.625 22.375 17.625Q22.375 17.625 22.375 17.625Q22.375 17.625 22.375 17.625Q22.375 17.625 22.375 17.625Q22.375 17.625 22.375 17.625ZM18.708 21.292Q18.708 21.292 18.708 21.292Q18.708 21.292 18.708 21.292Q18.708 21.292 18.708 21.292Q18.708 21.292 18.708 21.292Q18.708 21.292 18.708 21.292Q18.708 21.292 18.708 21.292Z"/></svg>
